icons/file-16.svg

<svg xmlns="http://www.w3.org/2000/svg" width="16" height="16" viewBox="0 0 16 16"><path fill-rule="evenodd" d="M3.75 1.5a.25.25 0 00-.25.25v12.5c0 .138.112.25.25.25h9.5a.25.25 0 00.25-.25V6h-2.75A1.75 1.75 0 019 4.25V1.5H3.75zm6.75.062V4.25c0 .138.112.25.25.25h2.688a.252.252 0 00-.011-.013l-2.914-2.914a.272.272 0 00-.013-.011zM2 1.75C2 .784 2.784 0 3.75 0h6.586c.464 0 .909.184 1.237.513l2.914 2.914c.329.328.513.773.513 1.237v9.586A1.75 1.75 0 0113.25 16h-9.5A1.75 1.75 0 012 14.25V1.75z"/></svg>

<svg xmlns="http://www.w3.org/2000/svg" width="16" height="16" viewBox="0 0 16 16">
  <defs/>
  <path d="M2,1.75 C2,0.784 2.784,0 3.75,0 L10.336,0 C10.8,0 11.245,0.184 11.573,0.513 L14.487,3.427 C14.816,3.755 15,4.2 15,4.664 L15,14.25 C15,15.216 14.216,16 13.25,16 L3.75,16 C2.784,16 2,15.216 2,14.25 Z M3.75,1.5 C3.612,1.5 3.5,1.612 3.5,1.75 L3.5,14.25 C3.5,14.388 3.612,14.5 3.75,14.5 L13.25,14.5 C13.388,14.5 13.5,14.388 13.5,14.25 L13.5,6 L10.75,6 C9.784,6 9,5.216 9,4.25 L9,1.5 Z M10.5,1.562 L10.5,4.25 C10.5,4.388 10.612,4.5 10.75,4.5 L13.438,4.5 C13.434,4.496 13.431,4.491 13.427,4.487 L10.513,1.573 C10.509,1.569 10.504,1.566 10.5,1.562 Z"/>
</svg>
